docs/images/icons/whatsapp.svg

<svg width="36.888" height="36.89" fill="none" xmlns="http://www.w3.org/2000/svg"><path d="M18.44 0c-3.23 0-6.4.84-9.2 2.46A18.418 18.418 0 0 0 0 18.37c-.02 3.22.82 6.4 2.41 9.21L.75 33.39c-.11.38-.11.78-.01 1.16a2.235 2.235 0 0 0 1.59 1.59c.38.1.78.09 1.16-.02l5.81-1.66c2.46 1.4 5.2 2.22 8.02 2.39 2.82.17 5.64-.31 8.25-1.4 2.6-1.09 4.92-2.76 6.78-4.89 1.85-2.14 3.19-4.66 3.92-7.39.72-2.73.81-5.59.25-8.36-.56-2.77-1.74-5.38-3.46-7.62a18.558 18.558 0 0 0-6.47-5.3A18.455 18.455 0 0 0 18.44 0Zm0 35.41c-3.05 0-6.04-.82-8.66-2.38a.709.709 0 0 0-.28-.09c-.1-.02-.2-.01-.3.02l-6.12 1.75c-.12.03-.26.03-.38 0a.717.717 0 0 1-.53-.53.737.737 0 0 1 0-.39l1.75-6.11a.726.726 0 0 0-.08-.58c-1.91-3.22-2.7-6.98-2.25-10.7.45-3.72 2.11-7.18 4.74-9.85 2.62-2.68 6.06-4.4 9.76-4.92 3.71-.52 7.49.21 10.74 2.06 3.26 1.85 5.81 4.73 7.26 8.18a17.02 17.02 0 0 1 .75 10.91 16.93 16.93 0 0 1-6.05 9.1 16.952 16.952 0 0 1-10.35 3.53Zm9.32-13.55-3.78-2.16c-.34-.19-.73-.29-1.12-.29-.39.01-.78.11-1.11.32l-2.55 1.52a8.129 8.129 0 0 1-3.58-3.57l1.53-2.55c.2-.33.31-.72.32-1.11 0-.4-.1-.78-.29-1.12l-2.16-3.78c-.18-.3-.43-.56-.74-.74-.3-.18-.65-.27-1.01-.27a5.906 5.906 0 0 0-5.9 5.88c0 2.04.4 4.05 1.18 5.94.77 1.88 1.91 3.59 3.35 5.03 1.44 1.44 3.15 2.58 5.03 3.36 1.88.78 3.9 1.19 5.94 1.19h.02c1.56-.01 3.05-.64 4.16-1.74a5.93 5.93 0 0 0 1.72-4.17c0-.35-.1-.7-.27-1-.18-.31-.44-.56-.74-.74Zm-4.87 6.17h-.02c-1.85 0-3.67-.36-5.37-1.07-1.71-.7-3.25-1.74-4.55-3.04a13.862 13.862 0 0 1-3.04-4.56c-.7-1.7-1.06-3.52-1.06-5.37 0-1.17.47-2.29 1.3-3.11.83-.83 1.95-1.29 3.12-1.29.1 0 .19.02.27.07.08.05.15.11.2.19l2.15 3.78c.07.11.1.24.1.37s-.04.26-.1.37l-1.74 2.89a.79.79 0 0 0-.1.34c-.01.11.02.23.06.34a9.575 9.575 0 0 0 4.83 4.82c.1.05.22.07.34.07.12-.01.24-.05.34-.11l2.88-1.73c.12-.07.24-.1.38-.1.13 0 .26.03.37.09l3.77 2.16c.08.05.15.11.2.2.05.08.07.17.07.26 0 1.17-.46 2.3-1.29 3.13-.82.83-1.94 1.29-3.11 1.3Z" fill="#26CE37"/></svg>

<svg width="36.888184" height="36.890381" viewBox="0 0 36.8882 36.8904" fill="none" xmlns="http://www.w3.org/2000/svg" xmlns:xlink="http://www.w3.org/1999/xlink">
	<desc>
			Created with Pixso.
	</desc>
	<defs/>
	<path id="Vector" d="M18.44 0C15.21 0 12.04 0.84 9.24 2.46C6.44 4.07 4.11 6.38 2.49 9.18C0.87 11.97 0.01 15.14 0 18.37C-0.02 21.59 0.82 24.77 2.41 27.58L0.75 33.39C0.64 33.77 0.64 34.17 0.74 34.55C0.84 34.93 1.04 35.28 1.32 35.56C1.6 35.84 1.94 36.04 2.33 36.14C2.71 36.24 3.11 36.23 3.49 36.12L9.3 34.46C11.76 35.86 14.5 36.68 17.32 36.85C20.14 37.02 22.96 36.54 25.57 35.45C28.17 34.36 30.49 32.69 32.35 30.56C34.2 28.42 35.54 25.9 36.27 23.17C36.99 20.44 37.08 17.58 36.52 14.81C35.96 12.04 34.78 9.43 33.06 7.19C31.33 4.95 29.12 3.14 26.59 1.89C24.05 0.64 21.26 0 18.44 0ZM18.44 35.41C15.39 35.41 12.4 34.59 9.78 33.03C9.69 32.98 9.6 32.95 9.5 32.94C9.4 32.92 9.3 32.93 9.2 32.96L3.08 34.71C2.96 34.74 2.82 34.74 2.7 34.71C2.57 34.68 2.45 34.61 2.36 34.52C2.27 34.43 2.2 34.31 2.17 34.18C2.13 34.05 2.14 33.92 2.17 33.79L3.92 27.68C3.95 27.58 3.95 27.48 3.94 27.38C3.93 27.28 3.89 27.19 3.84 27.1C1.93 23.88 1.14 20.12 1.59 16.4C2.04 12.68 3.7 9.22 6.33 6.55C8.95 3.87 12.39 2.15 16.09 1.63C19.8 1.11 23.58 1.84 26.83 3.69C30.09 5.54 32.64 8.42 34.09 11.87C35.53 15.32 35.8 19.16 34.84 22.78C33.88 26.4 31.76 29.6 28.79 31.88C25.82 34.17 22.18 35.41 18.44 35.41ZM27.76 21.86L23.98 19.7C23.64 19.51 23.25 19.41 22.86 19.41C22.47 19.42 22.08 19.52 21.75 19.73L19.2 21.25C17.66 20.47 16.4 19.22 15.62 17.68L17.15 15.13C17.35 14.8 17.46 14.41 17.47 14.02C17.47 13.62 17.37 13.24 17.18 12.9L15.02 9.12C14.84 8.82 14.59 8.56 14.28 8.38C13.98 8.2 13.63 8.11 13.27 8.11C11.71 8.11 10.22 8.73 9.11 9.83C8 10.93 7.38 12.43 7.37 13.99C7.37 16.03 7.77 18.04 8.55 19.93C9.32 21.81 10.46 23.52 11.9 24.96C13.34 26.4 15.05 27.54 16.93 28.32C18.81 29.1 20.83 29.51 22.87 29.51L22.89 29.51C24.45 29.5 25.94 28.87 27.05 27.77C28.15 26.66 28.77 25.16 28.77 23.6C28.77 23.25 28.67 22.9 28.5 22.6C28.32 22.29 28.06 22.04 27.76 21.86ZM22.89 28.03L22.87 28.03C21.02 28.03 19.2 27.67 17.5 26.96C15.79 26.26 14.25 25.22 12.95 23.92C11.64 22.61 10.61 21.07 9.91 19.36C9.21 17.66 8.85 15.84 8.85 13.99C8.85 12.82 9.32 11.7 10.15 10.88C10.98 10.05 12.1 9.59 13.27 9.59C13.37 9.59 13.46 9.61 13.54 9.66C13.62 9.71 13.69 9.77 13.74 9.85L15.89 13.63C15.96 13.74 15.99 13.87 15.99 14C15.99 14.13 15.95 14.26 15.89 14.37L14.15 17.26C14.09 17.36 14.06 17.48 14.05 17.6C14.04 17.71 14.07 17.83 14.11 17.94C15.08 20.09 16.79 21.8 18.94 22.76C19.04 22.81 19.16 22.83 19.28 22.83C19.4 22.82 19.52 22.78 19.62 22.72L22.5 20.99C22.62 20.92 22.74 20.89 22.88 20.89C23.01 20.89 23.14 20.92 23.25 20.98L27.02 23.14C27.1 23.19 27.17 23.25 27.22 23.34C27.27 23.42 27.29 23.51 27.29 23.6C27.29 24.77 26.83 25.9 26 26.73C25.18 27.56 24.06 28.02 22.89 28.03Z" fill="#26CE37" fill-opacity="1.000000" fill-rule="nonzero"/>
</svg>
